images/waarschuwing.svg

<svg height="20" viewBox="0 0 20 20" width="20" xmlns="http://www.w3.org/2000/svg" xmlns:xlink="http://www.w3.org/1999/xlink"><defs><path id="a" d="m1 1h18v18h-18z"/><mask id="b" fill="#fff" height="18" width="18" x="0" y="0"><use xlink:href="#a"/></mask></defs><g fill="none" fill-rule="evenodd"><use mask="url(#b)" stroke="#fff" stroke-width="2" xlink:href="#a"/><path d="m8.17578125 3.83105469h3.61083985v2.77246093l-.6972656 5.56982418h-2.23291019l-.68066406-5.56982418zm.12451172 9.18896481h3.37011723v2.9799805h-3.37011723z" fill="#fff"/></g></svg>

<?xml version="1.0" encoding="UTF-8" standalone="no"?>
<svg width="20px" height="20px" viewBox="0 0 20 20" version="1.1" xmlns="http://www.w3.org/2000/svg" xmlns:xlink="http://www.w3.org/1999/xlink" style="background: #D0011B;">
    <!-- Generator: Sketch 40.3 (33839) - http://www.bohemiancoding.com/sketch -->
    <title>waarschuwing</title>
    <desc>Created with Sketch.</desc>
    <defs>
        <rect id="path-1" x="1" y="1" width="18" height="18"></rect>
        <mask id="mask-2" maskContentUnits="userSpaceOnUse" maskUnits="objectBoundingBox" x="0" y="0" width="18" height="18" fill="white">
            <use xlink:href="#path-1"></use>
        </mask>
    </defs>
    <g id="Page-1" stroke="none" stroke-width="1" fill="none" fill-rule="evenodd">
        <g id="waarschuwing">
            <use id="Rectangle-2" stroke="#FFFFFF" mask="url(#mask-2)" stroke-width="2" xlink:href="#path-1"></use>
            <path d="M8.17578125,3.83105469 L11.7866211,3.83105469 L11.7866211,6.60351562 L11.0893555,12.1733398 L8.85644531,12.1733398 L8.17578125,6.60351562 L8.17578125,3.83105469 Z M8.30029297,13.0200195 L11.6704102,13.0200195 L11.6704102,16 L8.30029297,16 L8.30029297,13.0200195 Z" id="!" fill="#FFFFFF"></path>
        </g>
    </g>
</svg>
